X: 24681
T: MacLaine Of Loch Buie
R: reel
M: 4/4
K: Amixolydian
|:e2 de A3B|g2 fg BGBd|e2 de edea|gedB BAA2|
e2 de A3B|g2 fg BGBd|e2 de edea|gedB A3 e||
|:a3g aeef|gage fdcd|eaag aeea|gedB BAA2|
a3g aeef|gage fdcd|g2 ag geea|1 gedB A3a:|2 gedB A4||

